images/icons/48/icon-code-export.svg

<svg xmlns="http://www.w3.org/2000/svg" width="48" height="48" viewBox="0 0 48 48">
  <g fill="none">
    <path fill="#815EFF" d="M24,48 C47.8145455,48 48,37.2545455 48,24 C48,10.7454545 47.8145455,0 24,0 C0.185454545,0 0,10.7454545 0,24 C0,37.2545455 0.185454545,48 24,48 Z"/>
    <path fill="#4E2BCC" d="M8.72727273,17.4545455 L39.2727273,17.4545455 L39.2727273,33.8181818 C39.2727273,35.0231667 38.295894,36 37.0909091,36 L10.9090909,36 C9.704106,36 8.72727273,35.0231667 8.72727273,33.8181818 L8.72727273,17.4545455 Z"/>
    <path fill="#FFF" d="M19.3963636,24.8514545 L17.2478182,27.0005455 L19.3969091,29.1490909 C19.7163807,29.4687132 19.7162586,29.9868011 19.3966364,30.3062727 C19.0770141,30.6257443 18.5589262,30.6256222 18.2394545,30.306 L15.5121818,27.5787273 C15.1927784,27.2592274 15.1927784,26.7413181 15.5121818,26.4218182 L18.2394545,23.6945455 C18.5589262,23.3749232 19.0770141,23.3748011 19.3966364,23.6942727 C19.7162586,24.0137444 19.7163807,24.5318323 19.3969091,24.8514545 L19.3963636,24.8514545 Z M24.5754545,21.8721818 C24.7027858,21.4447873 25.1489339,21.1980851 25.5786147,21.3174739 C26.0082956,21.4368627 26.2632236,21.8783622 26.1518182,22.3101818 L23.4245455,32.1283636 C23.2972142,32.5557581 22.8510661,32.8024604 22.4213853,32.6830715 C21.9917044,32.5636827 21.7367764,32.1221832 21.8481818,31.6903636 L24.5754545,21.8721818 L24.5754545,21.8721818 Z M28.6030909,29.1485455 L30.7521818,27 L28.6030909,24.8514545 C28.2836193,24.5318323 28.2837414,24.0137444 28.6033636,23.6942727 C28.9229859,23.3748011 29.4410738,23.3749232 29.7605455,23.6945455 L32.4878182,26.4218182 C32.8072216,26.7413181 32.8072216,27.2592274 32.4878182,27.5787273 L29.7605455,30.306 C29.4410738,30.6256222 28.9229859,30.6257443 28.6033637,30.3062727 C28.2837415,29.9868011 28.2836193,29.4687132 28.6030909,29.1490909 L28.6030909,29.1485455 Z M10.9090909,12 L37.0909091,12 C38.295894,12 39.2727273,12.9768333 39.2727273,14.1818182 L39.2727273,17.4545455 L8.72727273,17.4545455 L8.72727273,14.1818182 C8.72727273,12.9768333 9.704106,12 10.9090909,12 Z M11.4545455,15.8181818 C12.0570379,15.8181818 12.5454545,15.3297652 12.5454545,14.7272727 C12.5454545,14.1247803 12.0570379,13.6363636 11.4545455,13.6363636 C10.852053,13.6363636 10.3636364,14.1247803 10.3636364,14.7272727 C10.3636364,15.3297652 10.852053,15.8181818 11.4545455,15.8181818 Z M14.7272727,15.8181818 C15.3297652,15.8181818 15.8181818,15.3297652 15.8181818,14.7272727 C15.8181818,14.1247803 15.3297652,13.6363636 14.7272727,13.6363636 C14.1247803,13.6363636 13.6363636,14.1247803 13.6363636,14.7272727 C13.6363636,15.3297652 14.1247803,15.8181818 14.7272727,15.8181818 Z M18,15.8181818 C18.6024925,15.8181818 19.0909091,15.3297652 19.0909091,14.7272727 C19.0909091,14.1247803 18.6024925,13.6363636 18,13.6363636 C17.3975075,13.6363636 16.9090909,14.1247803 16.9090909,14.7272727 C16.9090909,15.3297652 17.3975075,15.8181818 18,15.8181818 Z"/>
  </g>
</svg>

<svg xmlns="http://www.w3.org/2000/svg" width="48" height="48"><g fill="none"><path fill="#815EFF" d="M24 48c23.815 0 24-10.745 24-24S47.815 0 24 0 0 10.745 0 24s.185 24 24 24z"/><path fill="#4E2BCC" d="M8.727 17.455h30.546v16.363A2.182 2.182 0 0137.09 36H10.909a2.182 2.182 0 01-2.182-2.182V17.455z"/><path fill="#FFF" d="M19.396 24.851l-2.148 2.15 2.149 2.148a.818.818 0 01-1.158 1.157l-2.727-2.727a.818.818 0 010-1.157l2.727-2.727a.818.818 0 011.158 1.156zm5.18-2.979a.818.818 0 011.576.438l-2.727 9.818a.818.818 0 01-1.577-.438l2.727-9.818zm4.027 7.277L30.753 27l-2.15-2.149a.818.818 0 111.158-1.156l2.727 2.727c.32.32.32.837 0 1.157l-2.727 2.727a.818.818 0 01-1.158-1.157zM10.91 12h26.182c1.205 0 2.182.977 2.182 2.182v3.273H8.727v-3.273c0-1.205.977-2.182 2.182-2.182zm.546 3.818a1.09 1.09 0 100-2.182 1.09 1.09 0 000 2.182zm3.272 0a1.09 1.09 0 100-2.182 1.09 1.09 0 000 2.182zm3.273 0a1.09 1.09 0 100-2.182 1.09 1.09 0 000 2.182z"/></g></svg>
